X:1
T:Title
%%score 1 { ( 2 4 ) | ( 3 5 ) }
L:1/8
Q:1/4=107
M:4/4
K:G
V:1 treble nm="Grand Piano, Staff 1"
V:2 bass nm="Choir Pad, Gethsemane (Ouseley)"
V:4 bass 
V:3 bass 
V:5 bass 
V:1
 E2 [B,E]2 [B,E]2 [B,E]2 | [CE]3 [CE] [B,E]4 | [CF]2 [B,F]2 [B,F]2 [B,E]2 | [CE]2 [CF]2 [B,G]4 | %4
w: By~Frederick~Arthur~Gore~Ouseley,~1869 * * *||||
 G2 [DG]2 [DG]2 [DG]2 | [EG]3 [EG] [DG]4 | [DA]2 [DA]2 [DA]2 [DG]2 | [EG]2 [EA]2 [^DB]4 | %8
w: ||||
 [FB]2 [FB]2 [EB]2 [=FB]2 | [Ec]2 [EB]2 [EA]4 | [EG]2 [^DF]2 E2 [CE]2 | [B,E]2 [B,^D]2 [B,E]4- | %12
w: ||||
 [B,E]4 z4 |] %13
w: |
V:2
 E,2 G,2 G,2 G,2 | G,2 A,2 G,4 | A,2 A,2 G,2 z D, | G,2 A,2 D,4 | G,2 B,2 B,2 B,2 | %5
 B,2[K:treble] C2 B,4 | C2 C2 B,2[K:bass] B,2 | A,G,F,E, F,4 | ^D2 D2 E2 =D2 | C2 D2 C4 | %10
 .B,4 G,2 F,2 | F,E, F,2 G,4- | G,4 z4 |] %13
V:3
 z2 E,2 D,2 D,2 | C,2 A,,2 E,4 | E,2 ^D,2 .E,4 | C,B,, A,,2 G,,4 | z2 G,2 F,2 F,2 | E,2 C,2 G,4 | %6
 G,2 F,2 G,2 G,2 | C,2 C,2 B,,4 | B,2 A,2 G,2 G,2 | C,D, E,2 A,,4 | B,,2 z A, C,2 A,,2 | %11
 B,,2 B,,2 E,4- | E,4 z4 |] %13
V:4
 x8 | x8 | z4 z2 G,2 | x8 | x8 | x2[K:treble] x6 | x6[K:bass] x2 | x8 | x8 | x8 | x8 | x8 | x8 |] %13
V:5
 x8 | x8 | x8 | x8 | x8 | x8 | x8 | x8 | x8 | x8 | z2 B,,2 z4 | x8 | x8 |] %13

